static/images/mobile/copyright/wikipedia-tagline-mzn.svg

<?xml version="1.0" encoding="UTF-8"?>
<svg width="81px" height="18px" viewBox="0 0 81 18" version="1.1" xmlns="http://www.w3.org/2000/svg" xmlns:xlink="http://www.w3.org/1999/xlink">
    <title>mzn-tagline</title>
    <g id="Page-1" stroke="none" stroke-width="1" fill="none" fill-rule="evenodd">
        <path d="M3.71932458,5.80525328 C3.75084428,5.9054409 4.02213884,7.21013133 4.53208255,9.72157598 C4.68742964,10.4893058 4.8315197,10.9857411 4.96210131,11.2153846 C5.15099815,11.5483553 5.44410658,11.7214675 5.83950821,11.7385578 L7.10206379,11.7354597 C7.33846154,11.7354597 7.54446529,11.69606 7.71894934,11.6150094 C7.8934334,11.5350844 8.06791745,11.4011257 8.2424015,11.2142589 C8.41688555,11.0273921 8.60825516,10.7853659 8.81651032,10.4870544 C9.02589118,10.1876173 9.28255159,9.82288931 9.58761726,9.39174484 C9.9804878,8.84465291 10.382364,8.57110694 10.7932458,8.57110694 C11.3786116,8.57110694 11.8525328,8.86378987 12.2138837,9.44915572 C12.4806754,9.87242026 12.6337711,10.3058161 12.6709193,10.750469 C12.6765478,10.8123827 12.679925,10.8709193 12.679925,10.9305816 L12.679925,11.1016886 C12.679925,11.4337711 12.6393996,11.7287054 12.558349,11.9853659 C12.4772983,12.243152 12.3771107,12.4604128 12.2589118,12.6337711 C12.1407129,12.8082552 12.0146341,12.9410882 11.8806754,13.0322702 C11.7467167,13.1223265 11.624015,13.1673546 11.5114447,13.1673546 C10.8765478,13.1673546 9.97260788,12.7598499 8.80187617,11.9425891 C8.43377111,12.3726079 8.18161351,12.6439024 8.04540338,12.7564728 C7.73358349,13.0007505 7.35084428,13.1189493 6.89606004,13.1189493 L6.495,13.118 L5.85028143,13.120075 C4.82814259,13.120075 4.18086304,12.4863039 3.90619137,11.2153846 C3.34559099,11.7703565 3.02138837,12.0472795 2.93470919,12.0472795 L1.87879925,12.0472795 C1.51069418,12.0472795 1.14033771,11.9898687 0.766604128,11.8806754 C0.255534709,11.7230769 0,11.5069418 0,11.2255159 C0,10.3350844 0.317448405,9.60675422 0.953470919,9.04052533 C1.3891182,8.66003752 2.12195122,8.26604128 3.14971857,7.8619137 L2.91557223,6.71257036 L3.71932458,5.80525328 Z M10.6052533,9.79699812 C10.2439024,9.79699812 9.82626642,10.1617261 9.35347092,10.8923077 C9.4412758,10.9913696 9.58761726,11.1016886 9.79249531,11.2243902 C9.99849906,11.3437148 10.2168856,11.4596623 10.4510319,11.5654784 C10.6840525,11.6712946 10.9148218,11.7590994 11.1422139,11.8311445 C11.369606,11.9020638 11.5485929,11.939212 11.6791745,11.939212 C11.867167,11.9358349 11.9606004,11.8345216 11.9606004,11.6262664 C11.9606004,11.4461538 11.920075,11.2502814 11.8390244,11.0386492 C11.7579737,10.8270169 11.6532833,10.6300188 11.5260788,10.4454034 C11.3988743,10.2630394 11.2536585,10.108818 11.0915572,9.98386492 C10.9294559,9.86116323 10.7673546,9.79699812 10.6052533,9.79699812 Z M3.35459662,8.78386492 C2.95609756,8.90206379 2.47317073,9.09906191 1.90581614,9.37260788 C1.13921201,9.74634146 0.756472795,10.0424015 0.756472795,10.260788 C0.756472795,10.4476548 1.04915572,10.5861163 1.63452158,10.6806754 C2.02739212,10.7493433 2.39099437,10.7842402 2.72757974,10.7842402 C3.12157598,10.7864916 3.46378987,10.7527205 3.7564728,10.6829268 L3.35459662,8.78386492 Z M18.8105066,13.120075 C18.6979362,14.7467167 18.072045,16.1335835 16.932833,17.2795497 C16.5714822,17.6397749 16.3440901,17.8198874 16.2506567,17.8198874 C15.5909944,17.8198874 14.8153846,17.7512195 13.9238274,17.612758 C13.6311445,17.5688555 13.484803,17.5227017 13.484803,17.4742964 C13.484803,17.4236398 13.6401501,17.3527205 13.95197,17.2592871 C14.9369606,16.9722326 15.8363977,16.4746717 16.6525328,15.7643527 C17.0015009,15.4649156 17.3189493,15.1136961 17.6060038,14.7084428 C17.9673546,14.2030019 18.1474672,13.7797373 18.1474672,13.4375235 L18.1474672,13.1189493 L16.6525328,13.1189493 C15.5065666,13.1189493 14.9335835,12.6551595 14.9335835,11.7275797 C14.9335835,11.1365854 15.1046904,10.5005629 15.44803,9.8217636 C15.8409006,9.04840525 16.2889306,8.66341463 16.7932458,8.66341463 C17.4101313,8.66341463 17.9054409,9.04502814 18.2791745,9.80487805 C18.5538462,10.3587242 18.7249531,11.0026266 18.793621,11.7399625 L19.203,11.739 L20.4270169,11.7365854 C21.6168856,11.7365854 22.211257,11.5238274 22.211257,11.0926829 C22.211257,10.7932458 21.9399625,10.2990619 21.3984991,9.60787992 L21.884803,8.430394 C21.934334,8.31332083 21.9748593,8.25365854 22.006379,8.25365854 C22.0378987,8.25365854 22.1031895,8.32457786 22.2022514,8.46754221 C22.7065666,9.21163227 22.9598499,9.96923077 22.9598499,10.750469 C22.9598499,12.3309568 22.1718574,13.120075 20.5958724,13.120075 L18.8105066,13.120075 Z M16.5962477,9.99962477 C16.3530957,9.99962477 16.1347092,10.0986867 15.9422139,10.2945591 C15.7497186,10.4904315 15.6529081,10.7099437 15.6529081,10.95197 C15.6529081,11.4945591 16.1166979,11.7669794 17.0454034,11.7669794 C17.2874296,11.7669794 17.5958724,11.7500938 17.969606,11.7208255 C17.969606,11.3594747 17.8424015,10.993621 17.5868668,10.6266417 C17.3009381,10.2090056 16.9699812,9.99962477 16.5962477,9.99962477 Z M21.8938086,4.32045028 L22.8652908,5.30093809 L21.8938086,6.27129456 L20.9223265,5.29193246 L21.8938086,4.32045028 Z M40.3564728,13.120075 L40.3556879,13.1092328 C39.6813979,13.0478585 39.1970186,12.7258245 38.9009381,12.1407129 C38.6150094,12.8251407 38.084803,13.1684803 37.3125704,13.1684803 C36.5898687,13.1684803 36.0855535,12.8150094 35.7984991,12.1035647 C35.4056285,12.8217636 34.841651,13.1786116 34.1076923,13.1786116 C33.8330206,13.1786116 33.5380863,13.127955 33.2195122,13.0288931 C33.1947467,13.7448405 33.1508443,14.5058161 33.0889306,15.3073171 C32.7714822,16.1977486 32.0859287,16.8855535 31.0333959,17.3718574 C30.1362101,17.7894934 29.1579737,18 28.0998124,18 C27.0529081,18 26.1939962,17.7399625 25.5208255,17.2153846 C24.7857411,16.6412758 24.4187617,15.8476548 24.4187617,14.8333959 C24.4187617,14.2908068 24.5527205,13.7121951 24.8206379,13.0941839 C25.0131332,12.6517824 25.2135084,12.3073171 25.4183865,12.0574109 C25.5174484,11.9403377 25.6086304,11.8806754 25.6896811,11.8806754 C25.7639775,11.8806754 25.8022514,11.9245779 25.8022514,12.0101313 C25.8022514,12.0675422 25.7831144,12.1305816 25.7459662,12.2082552 C25.3913696,12.934334 25.2135084,13.6018762 25.2135084,14.2052533 C25.2135084,14.7973734 25.4093809,15.3073171 25.8022514,15.7362101 C26.3189493,16.3035647 27.1013133,16.587242 28.1470919,16.587242 C29.3302064,16.587242 30.3613508,16.3756098 31.2405253,15.9534709 C31.963227,15.6045028 32.4180113,15.2251407 32.604878,14.8131332 C32.6667917,14.6825516 32.6757974,14.4168856 32.6330206,14.0183865 C32.5891182,13.6255159 32.5305816,13.3317073 32.4551595,13.1313321 C32.3054409,12.7508443 31.9193246,12.1598499 31.2968105,11.3560976 L31.8202627,10.3654784 C31.8945591,10.2225141 31.9508443,10.1527205 31.9879925,10.1527205 C32.0195122,10.1527205 32.0757974,10.2101313 32.1557223,10.3283302 C32.4855535,10.8258912 32.7129456,11.1354597 32.8378987,11.2525328 C33.1744841,11.5834897 33.5797373,11.7478424 34.0525328,11.7478424 C34.5816135,11.7478424 34.9654784,11.604878 35.2018762,11.3166979 C35.3572233,11.1298311 35.4821764,10.7898687 35.5756098,10.2990619 C35.6195122,10.0761726 35.6915572,9.96247655 35.7906191,9.96247655 C35.8896811,9.96247655 35.9527205,10.0615385 35.9774859,10.2630394 C36.1080675,11.2660413 36.5414634,11.7669794 37.2765478,11.7669794 C38.1613508,11.7669794 38.6532833,11.2930582 38.7534709,10.3452158 C38.7782364,10.1099437 38.8412758,9.99174484 38.9403377,9.99174484 C39.0529081,9.99174484 39.1238274,10.108818 39.1553471,10.3395872 C39.2756354,11.2390404 39.7151498,11.7045131 40.4758988,11.7380138 L41.5801126,11.7365854 C42.7699812,11.7365854 43.363227,11.5238274 43.363227,11.0926829 C43.363227,10.7932458 43.0941839,10.2990619 42.550469,9.60787992 L43.0356473,8.430394 C43.0863039,8.31332083 43.1257036,8.25365854 43.1572233,8.25365854 C43.188743,8.25365854 43.2540338,8.32457786 43.3542214,8.46754221 C43.8619137,9.21163227 44.1140713,9.96923077 44.1140713,10.750469 C44.1140713,12.3309568 43.3249531,13.120075 41.7489681,13.120075 L40.3564728,13.120075 Z M34.7133208,6.23414634 L35.5924953,7.11332083 L34.7234522,7.98123827 L33.835272,7.10206379 L34.7133208,6.23414634 Z M36.8363977,6.23414634 L37.7234522,7.11332083 L36.8454034,7.98123827 L35.9673546,7.10206379 L36.8363977,6.23414634 Z M43.0491557,4.32045028 L44.0195122,5.30093809 L43.0491557,6.27129456 L42.0776735,5.29193246 L43.0491557,4.32045028 Z M35.7692308,4.36547842 L36.6484053,5.24465291 L35.7793621,6.12157598 L34.891182,5.23339587 L35.7692308,4.36547842 Z M46.9181989,11.6476548 C46.9181989,12.1339587 46.819137,12.5774859 46.6187617,12.9838649 C46.5005629,13.2270169 46.4183865,13.3474672 46.3744841,13.3474672 C46.3260788,13.3474672 46.3013133,13.1954972 46.3013133,12.8904315 C46.3013133,11.5069418 46.0581614,8.12983114 45.5729831,2.76135084 L46.564728,1.83602251 C46.6502814,1.75722326 46.7110694,1.71332083 46.7403377,1.7065666 C46.7718574,1.7065666 46.7909944,1.77636023 46.7977486,1.91144465 C46.8787992,3.46604128 46.9181989,6.71257036 46.9181989,11.6476548 Z M54.2251407,10.6266417 C54.2251407,12.2904315 53.1230769,13.120075 50.9178236,13.120075 C50.0971857,13.120075 49.4938086,13.0075047 49.1144465,12.7834897 C48.6213884,12.497561 48.375985,11.9786116 48.375985,11.2243902 C48.375985,10.8686679 48.4727955,10.5061914 48.6664165,10.1403377 C48.7542214,9.97148218 48.8330206,9.88705441 48.9084428,9.88705441 C49.0041276,9.88705441 49.0356473,9.98949343 49.0131332,10.1943715 C48.9939962,10.3440901 48.9861163,10.4667917 48.9861163,10.5681051 C48.9861163,11.0645403 49.2090056,11.4011257 49.6592871,11.5767355 C49.9407129,11.6825516 50.3831144,11.7365854 50.9876173,11.7365854 C52.7313321,11.7365854 53.6037523,11.4664165 53.6037523,10.9227017 C53.6037523,10.0694184 52.5849906,8.9043152 50.5474672,7.42851782 L50.9009381,6.21275797 C50.9380863,6.0956848 50.9718574,6.03714822 51.0045028,6.03714822 C51.0405253,6.03714822 51.121576,6.08330206 51.2375235,6.17560976 C53.2277674,7.77973734 54.2251407,9.26228893 54.2251407,10.6266417 Z M66.204878,10.6266417 C66.204878,12.2904315 65.1028143,13.120075 62.897561,13.120075 C62.0757974,13.120075 61.4724203,13.0075047 61.0941839,12.7834897 C60.6011257,12.497561 60.3557223,11.9786116 60.3557223,11.2243902 C60.3557223,10.8686679 60.4525328,10.5061914 60.6461538,10.1403377 C60.732833,9.97148218 60.812758,9.88705441 60.8881801,9.88705441 C60.9827392,9.88705441 61.0165103,9.98949343 60.9917448,10.1943715 C60.9726079,10.3440901 60.964728,10.4667917 60.964728,10.5681051 C60.964728,11.0645403 61.1876173,11.4011257 61.6378987,11.5767355 C61.9193246,11.6825516 62.3628518,11.7365854 62.9673546,11.7365854 C64.7110694,11.7365854 65.582364,11.4664165 65.582364,10.9227017 C65.582364,10.0694184 64.5636023,8.9043152 62.5260788,7.42851782 L62.8806754,6.21275797 C62.9178236,6.0956848 62.9515947,6.03714822 62.9831144,6.03714822 C63.019137,6.03714822 63.0990619,6.08330206 63.2172608,6.17560976 C65.2075047,7.77973734 66.204878,9.26228893 66.204878,10.6266417 Z M69.019137,11.6476548 C69.019137,12.1339587 68.9178236,12.5774859 68.7185741,12.9838649 C68.6015009,13.2270169 68.5181989,13.3474672 68.4742964,13.3474672 C68.4247655,13.3474672 68.4011257,13.1954972 68.4011257,12.8904315 C68.4011257,11.5069418 68.1579737,8.12983114 67.6739212,2.76135084 L68.6634146,1.83602251 C68.7512195,1.75722326 68.8108818,1.71332083 68.8412758,1.7065666 C68.8716698,1.7065666 68.8896811,1.77636023 68.897561,1.91144465 C68.9763602,3.46604128 69.019137,6.71257036 69.019137,11.6476548 Z M75.0630394,13.2337711 C75.0630394,14.3988743 74.6915572,15.4998124 73.9508443,16.5332083 C73.3170732,17.419137 72.7868668,17.8615385 72.3636023,17.8615385 C71.4529081,17.8615385 70.6682927,17.8153846 70.0086304,17.7208255 C69.7913696,17.6904315 69.6810507,17.6375235 69.6810507,17.5621013 C69.6810507,17.4866792 69.793621,17.4281426 70.017636,17.3842402 C70.95197,17.1906191 71.8930582,16.6964353 72.8409006,15.8994371 C73.849531,15.0461538 74.3538462,14.2277674 74.3538462,13.4420263 C74.3538462,12.9185741 73.9384615,12.2499062 73.1031895,11.441651 L73.6435272,10.3114447 C73.6941839,10.2101313 73.7313321,10.1572233 73.7560976,10.1527205 C73.7932458,10.1639775 73.8484053,10.2146341 73.9170732,10.302439 C74.1973734,10.6446529 74.4562852,11.1084428 74.6915572,11.6938086 C74.9369606,12.3095685 75.0630394,12.824015 75.0630394,13.2337711 Z M74.1827392,6.81500938 L73.2123827,7.78649156 L72.2409006,6.80487805 L73.2123827,5.8435272 L74.1827392,6.81500938 Z M79.8956848,0.320825516 C79.3834897,0.744090056 78.7429644,0.954596623 77.969606,0.954596623 C77.8559099,0.954596623 77.6904315,0.939962477 77.4664165,0.912945591 C77.2424015,0.885928705 77.0712946,0.871294559 76.9609756,0.871294559 C76.8810507,0.871294559 76.7729831,0.95684803 76.6390244,1.13133208 C76.5050657,1.30581614 76.4071295,1.39136961 76.3452158,1.39136961 C76.2371482,1.39136961 76.1842402,1.31819887 76.1842402,1.1684803 C76.1842402,1.06829268 76.2529081,0.865666041 76.3913696,0.560600375 C76.5410882,0.224015009 76.6705441,0.0574108818 76.7842402,0.0574108818 C76.921576,0.0574108818 77.1433396,0.0833020638 77.4540338,0.136210131 C77.7602251,0.189118199 78.0022514,0.215009381 78.1778612,0.215009381 C78.8634146,0.215009381 79.3744841,0.168855535 79.7099437,0.0742964353 C79.8900563,0.0236397749 80.0105066,1.77635684e-15 80.0634146,1.77635684e-15 C80.1140713,1.77635684e-15 80.1377111,0.018011257 80.1377111,0.0472795497 C80.1354597,0.0990619137 80.0555347,0.189118199 79.8956848,0.320825516 Z M79.1178236,11.6476548 C79.1178236,12.1204503 79.0131332,12.5639775 78.8105066,12.9838649 C78.6934334,13.2270169 78.6101313,13.3474672 78.5662289,13.3474672 C78.5166979,13.3474672 78.4930582,13.1954972 78.4930582,12.8904315 C78.4930582,11.5069418 78.2510319,8.12983114 77.7658537,2.76135084 L78.7553471,1.83602251 C78.843152,1.75722326 78.9028143,1.71332083 78.9332083,1.7065666 C78.9636023,1.7065666 78.9827392,1.77636023 78.9894934,1.91144465 C79.0739212,3.39174484 79.1178236,6.63602251 79.1178236,11.6476548 Z" id="mzn-tagline" fill="#000000" fill-rule="nonzero"></path>
    </g>
</svg>

<svg xmlns="http://www.w3.org/2000/svg" width="81" height="18"><path fill="#000" fill-rule="nonzero" d="M3.72 5.805c.03.1.302 1.405.812 3.917.155.767.3 1.264.43 1.493.189.333.482.506.878.524l1.262-.004c.236 0 .442-.039.617-.12.174-.08.349-.214.523-.4.175-.188.366-.43.575-.728.209-.3.466-.664.77-1.095.393-.547.795-.82 1.206-.82.586 0 1.06.292 1.42.877.268.423.42.857.458 1.301.006.062.009.12.009.18v.172c0 .332-.04.627-.122.883a2.463 2.463 0 0 1-.3.649 1.47 1.47 0 0 1-.377.398.676.676 0 0 1-.37.135c-.634 0-1.538-.407-2.71-1.224-.367.43-.62.7-.756.813-.311.245-.694.363-1.149.363l-.401-.001-.645.002c-1.022 0-1.67-.634-1.944-1.905-.56.555-.885.832-.971.832H1.879c-.368 0-.739-.057-1.112-.166-.511-.158-.767-.374-.767-.655 0-.89.317-1.62.953-2.185.436-.381 1.169-.775 2.197-1.18l-.234-1.148.803-.908Zm6.885 3.992c-.361 0-.779.365-1.252 1.095.088.1.235.21.44.332.205.12.424.236.658.341.233.106.464.194.691.266.228.071.407.108.537.108.188-.003.282-.104.282-.313 0-.18-.04-.376-.122-.587a2.817 2.817 0 0 0-.313-.594 2.08 2.08 0 0 0-.434-.461.808.808 0 0 0-.487-.187Zm-7.25-1.013c-.399.118-.882.315-1.45.589-.766.373-1.149.67-1.149.888 0 .187.293.325.879.42.392.068.756.103 1.093.103a4.36 4.36 0 0 0 1.028-.101l-.401-1.9ZM18.81 13.12c-.113 1.627-.739 3.014-1.878 4.16-.362.36-.589.54-.682.54-.66 0-1.436-.069-2.327-.207-.293-.044-.44-.09-.44-.139 0-.05.156-.121.468-.215a7.108 7.108 0 0 0 2.7-1.495c.35-.3.667-.65.954-1.056.361-.505.541-.928.541-1.27v-.32h-1.494c-1.146 0-1.72-.463-1.72-1.39 0-.591.172-1.227.515-1.906.393-.774.84-1.159 1.345-1.159.617 0 1.112.382 1.486 1.142.275.554.446 1.198.515 1.935l.409-.001 1.224-.002c1.19 0 1.784-.213 1.784-.644 0-.3-.271-.794-.813-1.485l.487-1.178c.05-.117.09-.176.121-.176.032 0 .097.07.196.214.505.744.758 1.501.758 2.282 0 1.581-.788 2.37-2.364 2.37H18.81ZM16.596 10c-.243 0-.461.099-.654.295-.192.195-.29.415-.29.657 0 .543.465.815 1.393.815.242 0 .55-.017.925-.046 0-.362-.128-.727-.383-1.094-.286-.418-.617-.627-.99-.627Zm5.298-5.68.971.98-.971.971-.972-.98.972-.97Zm18.462 8.8v-.01c-.675-.062-1.159-.384-1.455-.97-.286.685-.816 1.028-1.588 1.028-.723 0-1.227-.353-1.515-1.064-.392.718-.956 1.075-1.69 1.075-.275 0-.57-.051-.888-.15a53.89 53.89 0 0 1-.131 2.278c-.318.89-1.003 1.579-2.056 2.065A6.867 6.867 0 0 1 28.1 18c-1.047 0-1.906-.26-2.58-.785-.734-.574-1.101-1.367-1.101-2.382 0-.542.134-1.12.402-1.739.192-.442.393-.787.597-1.037.1-.117.19-.176.272-.176.074 0 .112.044.112.13 0 .057-.019.12-.056.197-.355.726-.532 1.394-.532 1.997 0 .592.195 1.102.588 1.531.517.568 1.3.851 2.345.851 1.183 0 2.214-.211 3.094-.634.722-.348 1.177-.728 1.364-1.14.062-.13.07-.396.028-.795-.044-.392-.102-.686-.178-.887-.15-.38-.536-.971-1.158-1.775l.523-.99c.075-.143.13-.213.168-.213.032 0 .088.057.168.175.33.498.557.807.682.925a1.67 1.67 0 0 0 1.215.495c.529 0 .912-.143 1.149-.431.155-.187.28-.527.374-1.018.044-.223.116-.337.215-.337.099 0 .162.1.186.301.131 1.003.564 1.504 1.3 1.504.884 0 1.376-.474 1.476-1.422.025-.235.088-.353.187-.353.113 0 .184.117.215.348.12.899.56 1.365 1.32 1.398l1.105-.001c1.19 0 1.783-.213 1.783-.644 0-.3-.269-.794-.813-1.485l.486-1.178c.05-.117.09-.176.121-.176.032 0 .097.07.197.214.508.744.76 1.501.76 2.282 0 1.581-.789 2.37-2.365 2.37h-1.393Zm-5.643-6.886.88.88-.87.867-.888-.879.878-.868Zm2.123 0 .887.88-.878.867-.878-.879.87-.868ZM43.05 4.32l.97.98-.97.971-.971-.98.971-.97Zm-7.28.045.88.88-.87.877-.888-.889.878-.868Zm11.15 7.283c0 .486-.1.93-.3 1.336-.118.243-.2.363-.245.363-.048 0-.073-.152-.073-.457 0-1.383-.243-4.76-.728-10.129l.992-.925a.592.592 0 0 1 .175-.13c.032 0 .051.07.058.205.08 1.555.12 4.802.12 9.737Zm7.306-1.021c0 1.663-1.102 2.493-3.307 2.493-.82 0-1.424-.112-1.804-.337-.493-.285-.738-.804-.738-1.559 0-.355.097-.718.29-1.084.088-.169.167-.253.242-.253.096 0 .128.102.105.307-.019.15-.027.273-.027.374 0 .497.223.833.673 1.009.282.106.724.16 1.329.16 1.743 0 2.616-.27 2.616-.814 0-.854-1.019-2.019-3.057-3.494l.354-1.216c.037-.117.07-.176.104-.176.036 0 .117.046.233.139 1.99 1.604 2.987 3.086 2.987 4.45Zm11.98 0c0 1.663-1.102 2.493-3.307 2.493-.822 0-1.426-.112-1.804-.337-.493-.285-.738-.804-.738-1.559 0-.355.097-.718.29-1.084.087-.169.167-.253.242-.253.095 0 .129.102.104.307-.02.15-.027.273-.027.374 0 .497.223.833.673 1.009.281.106.725.16 1.33.16 1.743 0 2.614-.27 2.614-.814 0-.854-1.018-2.019-3.056-3.494l.355-1.216c.037-.117.07-.176.102-.176.036 0 .116.046.234.139 1.99 1.604 2.988 3.086 2.988 4.45Zm2.814 1.02c0 .487-.101.93-.3 1.337-.117.243-.2.363-.245.363-.05 0-.073-.152-.073-.457 0-1.383-.243-4.76-.727-10.129l.99-.925c.087-.079.147-.123.177-.13.03 0 .049.07.057.205.078 1.555.121 4.802.121 9.737Zm6.044 1.587c0 1.165-.371 2.266-1.112 3.3-.634.885-1.164 1.328-1.587 1.328-.911 0-1.696-.047-2.355-.141-.218-.03-.328-.083-.328-.159 0-.075.113-.134.337-.178.934-.193 1.875-.688 2.823-1.485 1.009-.853 1.513-1.671 1.513-2.457 0-.523-.416-1.192-1.25-2l.54-1.13c.05-.102.087-.155.112-.16.037.012.092.063.161.15.28.343.54.806.775 1.392.245.616.371 1.13.371 1.54Zm-.88-6.419-.97.971-.972-.981.971-.961.97.971ZM79.896.321c-.513.423-1.153.634-1.926.634-.114 0-.28-.015-.504-.042a4.736 4.736 0 0 0-.505-.042c-.08 0-.188.086-.322.26-.134.175-.232.26-.294.26-.108 0-.16-.073-.16-.223 0-.1.068-.302.206-.607.15-.337.28-.504.393-.504.138 0 .36.026.67.08.306.052.548.078.724.078.685 0 1.196-.046 1.532-.14.18-.051.3-.075.353-.075.051 0 .075.018.075.047-.003.052-.082.142-.242.274Zm-.778 11.327c0 .472-.105.916-.307 1.336-.118.243-.2.363-.245.363-.05 0-.073-.152-.073-.457 0-1.383-.242-4.76-.727-10.129l.99-.925c.087-.079.147-.123.177-.13.03 0 .05.07.056.205.085 1.48.129 4.725.129 9.737Z"/></svg>
